!!!ONB: MCCC : ILB0178_03 : Extracted Monophonic Melody
!!!COM: Beethoven, Ludwig van
!!!OPR: Piano Sonata No.17
!!!OMV: 3
!!!SCT: Op.31 No.2
!!!ODT: 1801///
**kern
*thru
*staff1
*>I
*clefG2
*k[b-]
*d:
*M3/8
*MM116
16a
16ff
16ee
=1
*>A
8dd
16r
16a
16ff
16ee
=2
8dd
16r
16a
16ff
16ee
=3
8dd
16r
16a
16ff
16dd
=4
8ee
16r
16a
16gg
16ff
=5
8ee
16r
16a
16gg
16ff
=6
8ee
16r
16a
16gg
16ff
=7
8ee
16r
16a
16gg
16ee
=8
8ff
16r
16dd
16aa
16ddd
=9
8bb-
16r
16b-
16dd
16bb-
=10
8gg
16r
16g
16b-
16gg
=11
8ee
16r
16e
16a
16ee
=12
8ff
16r
16f
16a
16ff
=13
8dd
16r
16d
16a
16dd
=14
8cc#
16r
16c#
16a
16cc#
=15
8dd
8r
16f
16a
=16
16dd
16ff
16aa
16ff
16ddd
16aa
=17
8bb-
16r
16b-
16dd
16bb-
=18
8gg
16r
16g
16b-
16gg
=19
8ee
16r
16e
16a
16ee
=20
8ff
16r
16f
16a
16ff
=21
8dd
16r
16d
16a
16dd
=22
8cc#
16r
16c#
16a
16cc#
=23
16dd
32r
32a
4aa
=24
16gg#
16gg
16ff#
16ff
16ee
16ee-
=25
8dd
16r
16d
16a
16dd
=26
8cc#
16r
16c#
16a
16cc#
=27
16dd
16dd
4ddd
=28
16ccc#
16ccc
16bb
16bb-
16aa
16gg#
=29
8aa
16r
16d
16a
16dd
=30
8cc#
16r
16cc#
16aa
16ccc#
=31
16ddd
16D
16F
16A
8d
=32
16r
16D
16F
16A
8d
=33
16r
16D
16F
16A
8d
=34
16D
16F
16B
16d
16f
16b
=35
16c
16cc
16e
16ee
16g
16gg
=36
16cc
16ccc
16ee
16eee
16cc
16ccc
=37
16g
16gg
16e
16ee
16g
16gg
=38
16e
16ee
16c
16cc
8r
=39
16r
16C
16E
16G
8c
=40
16r
16C
16E
16G
8c
=41
16r
16C
16E
16G
8c
=42
16A
16d
16A
16d
16A
16d#
=43
8e
8ff
8ee
=44
8ff
8ee
8ff
=45
8ee
8ff
8ee
=46
8ff
8ee
8ff
=47
8ee
[4ff
=48
8ff]
8ee
8dd
=49
8cc
8b
8a
=50
8g#
8a
8b
=51
8a
16ff
16fff
16ee
16eee
=52
16ff
16fff
16ee
16eee
16ff
16fff
=53
16ee
16eee
16ff
16fff
16ee
16eee
=54
16ff
16fff
16ee
16eee
16ff
16fff
=55
8eee
[4fff
=56
8fff]
8eee
8ddd
=57
8ccc
8bb
8aa
=58
8gg#
8aa
8bb
=59
8aa
8fff
8fff
=60
8fff
8eee
8ddd
=61
8ccc
8bb
8aa
=62
8gg#
8aa
8bb
=63
8aa
8fff
8fff
=64
8fff
8eee
8ddd
=65
8ccc
8bb
8aa
=66
8gg#
8aa
8bb
=67
8aa
8r
16a
16aa
=68
8cc
8r
16cc
16ccc
=69
8ee
8r
16ee
16eee
=70
8cc
8r
16cc
16ccc
=71
4.a
=72
8aa
8bb
8gg#
=73
8aa
16r
16a
16aa
16a
=74
8cc
16r
16cc
16ccc
16cc
=75
8ee
16r
16ee
16eee
16ee
=76
8cc
16r
16cc
16ccc
16cc
=77
4.a
=78
8aa
8bb
8gg#
=79
8aa
8bb
8ccc#
=80
8ddd
8ccc
8bb
=81
8ccc
8gg#
8aa
=82
8bb
8ff#
8gg#
=83
16a
16aa
16b
16bb
16cc#
16ccc#
=84
16dd
16ddd
16cc
16ccc
16b
16bb
=85
16cc
16ccc
16g#
16gg#
16a
16aa
=86
16b
16bb
16f#
16ff#
16g#
16gg#
=87
16a
16aa
16g#
16a
16aa
16a
=88
16g#
16a
16aa
16a
16g#
16a
=89
16aa
16a
16g#
16a
16aa
16a
=90
16g#
16a
16aa
16a
16g#
16a
=91
16b-
16a
16b-
16a
16b-
16a
=92
16b-
16a
16b-
16a
16b-
16a
=93
16b-
16a
16b-
16a
16cc#
16a
=94
16dd
16a
16ee
16a
16ff
16ee
=95
*>A
8dd
16r
16a
16ff
16ee
=96
8dd
16r
16a
16ff
16ee
=97
8dd
16r
16a
16ff
16dd
=98
8ee
16r
16a
16gg
16ff
=99
8ee
16r
16a
16gg
16ff
=100
8ee
16r
16a
16gg
16ff
=101
8ee
16r
16a
16gg
16ee
=102
8ff
16r
16dd
16aa
16ddd
=103
8bb-
16r
16b-
16dd
16bb-
=104
8gg
16r
16g
16b-
16gg
=105
8ee
16r
16e
16a
16ee
=106
8ff
16r
16f
16a
16ff
=107
8dd
16r
16d
16a
16dd
=108
8cc#
16r
16c#
16a
16cc#
=109
8dd
8r
16f
16a
=110
16dd
16ff
16aa
16ff
16ddd
16aa
=111
8bb-
16r
16b-
16dd
16bb-
=112
8gg
16r
16g
16b-
16gg
=113
8ee
16r
16e
16a
16ee
=114
8ff
16r
16f
16a
16ff
=115
8dd
16r
16d
16a
16dd
=116
8cc#
16r
16c#
16a
16cc#
=117
16dd
32r
32a
4aa
=118
16gg#
16gg
16ff#
16ff
16ee
16ee-
=119
8dd
16r
16d
16a
16dd
=120
8cc#
16r
16c#
16a
16cc#
=121
16dd
16dd
4ddd
=122
16ccc#
16ccc
16bb
16bb-
16aa
16gg#
=123
8aa
16r
16d
16a
16dd
=124
8cc#
16r
16cc#
16aa
16ccc#
=125
16ddd
16D
16F
16A
8d
=126
16r
16D
16F
16A
8d
=127
16r
16D
16F
16A
8d
=128
16D
16F
16B
16d
16f
16b
=129
16c
16cc
16e
16ee
16g
16gg
=130
16cc
16ccc
16ee
16eee
16cc
16ccc
=131
16g
16gg
16e
16ee
16g
16gg
=132
16e
16ee
16c
16cc
8r
=133
16r
16C
16E
16G
8c
=134
16r
16C
16E
16G
8c
=135
16r
16C
16E
16G
8c
=136
16A
16d
16A
16d
16A
16d#
=137
8e
8ff
8ee
=138
8ff
8ee
8ff
=139
8ee
8ff
8ee
=140
8ff
8ee
8ff
=141
8ee
[4ff
=142
8ff]
8ee
8dd
=143
8cc
8b
8a
=144
8g#
8a
8b
=145
8a
16ff
16fff
16ee
16eee
=146
16ff
16fff
16ee
16eee
16ff
16fff
=147
16ee
16eee
16ff
16fff
16ee
16eee
=148
16ff
16fff
16ee
16eee
16ff
16fff
=149
8eee
[4fff
=150
8fff]
8eee
8ddd
=151
8ccc
8bb
8aa
=152
8gg#
8aa
8bb
=153
8aa
8fff
8fff
=154
8fff
8eee
8ddd
=155
8ccc
8bb
8aa
=156
8gg#
8aa
8bb
=157
8aa
8fff
8fff
=158
8fff
8eee
8ddd
=159
8ccc
8bb
8aa
=160
8gg#
8aa
8bb
=161
8aa
8r
16a
16aa
=162
8cc
8r
16cc
16ccc
=163
8ee
8r
16ee
16eee
=164
8cc
8r
16cc
16ccc
=165
4.a
=166
8aa
8bb
8gg#
=167
8aa
16r
16a
16aa
16a
=168
8cc
16r
16cc
16ccc
16cc
=169
8ee
16r
16ee
16eee
16ee
=170
8cc
16r
16cc
16ccc
16cc
=171
4.a
=172
8aa
8bb
8gg#
=173
8aa
8bb
8ccc#
=174
8ddd
8ccc
8bb
=175
8ccc
8gg#
8aa
=176
8bb
8ff#
8gg#
=177
16a
16aa
16b
16bb
16cc#
16ccc#
=178
16dd
16ddd
16cc
16ccc
16b
16bb
=179
16cc
16ccc
16g#
16gg#
16a
16aa
=180
16b
16bb
16f#
16ff#
16g#
16gg#
=181
16a
16aa
16g#
16a
16aa
16a
=182
16g#
16a
16aa
16a
16g#
16a
=183
16aa
16a
16g#
16a
16aa
16a
=184
16g#
16a
16aa
16a
16g#
16a
=185
16b-
16a
16b-
16a
16b-
16a
=186
16b-
16a
16b-
16a
16b-
16a
=187
16b-
16a
16b-
16a
16cc#
16a
=188
16dd
16a
16ee
16a
16ff
16ee
=189
*>B
8ee-
16r
16ee-
16aa
16bb-
=190
8ccc
16r
16ee-
16aa
16bb-
=191
8ccc
16r
16ee-
16aa
16bb-
=192
8ccc
16r
16dd
16ccc
16aa
=193
8bb-
16r
16BB-
16D
16G
=194
8B-
16r
16B-
16d
16g
=195
8b-
16r
16b-
16dd
16gg
=196
8bb-
16r
16ff
16bb
16ccc
=197
8ddd
16r
16ff
16bb
16ccc
=198
8ddd
16r
16ff
16bb
16ccc
=199
8ddd
16r
16ff
16bb
16ccc
=200
8ddd
16r
16ee
16ddd
16bb
=201
8ccc
16r
16C
16E
16A
=202
8c
16r
16c
16e
16a
=203
8cc
16r
16cc
16ee
16aa
=204
8ccc
8r
8r
=205
16r
16B-
16e
16g
8b-
=206
16r
16c#
16g
16b-
8cc#
=207
16r
16b-
16cc#
16ee
8gg
=208
16r
16ee
16bb-
16aa
8r
=209
16r
16d
16f
16a
8dd
=210
16r
16f
16a
16dd
8ff
=211
16r
16a
16dd
16ff
8aa
=212
8r
16r
16aa-
16dd
16ee-
=213
8ff
16r
16ff
16b
16cc
=214
8dd
16r
16dd
16f
16g
=215
8a-
16r
16a-
16d
16e-
=216
8f
16r
16gg
16cc
16dd
=217
8ee-
16r
16ee-
16g
16b
=218
8cc
16r
16cc
16e-
16f
=219
8g
16r
16g
16c
16d
=220
16e-
16c
16G
16r
8r
=221
16r
16G-
16c
16e-
8g-
=222
16r
16A
16e-
16g-
8a
=223
16r
16g-
16a
16cc
8ee-
=224
16r
16cc
16gg-
16ff
8r
=225
16r
16d-
16f
16b-
8dd-
=226
16r
16f
16b-
16dd-
8ff
=227
16r
16b-
16dd-
16ff
8bb-
=228
8r
16r
16fff
16bb-
16ccc
=229
8ddd-
16r
16ddd-
16gg-
16aa-
=230
8bb-
16r
16bb-
16dd-
16ff
=231
8gg-
16r
16gg-
16b-
16cc
=232
8dd-
16r
16fff
16bb-
16ccc
=233
8ddd-
16r
16ddd-
16ff
16aa
=234
8bb-
16r
16bb-
16dd-
16ee-
=235
8ff
16r
16ff
16b-
16cc
=236
8dd-
16r
16ddd-
16bb-
16ccc
=237
8ddd-
16r
16dd-
16b-
16cc
=238
8dd-
16r
16ddd-
16bb-
16ccc
=239
8ddd-
16r
16dd-
16b-
16cc
=240
8dd-
16r
16ccc
16aa-
16bb-
=241
8ccc
16r
16cc
16a-
16b-
=242
8cc
16r
16eee-
16ccc
16ddd-
=243
8eee-
16r
16ee-
16cc
16dd-
=244
8ee-
16r
16f
16dd-
16cc
=245
8b-
16r
16f
16dd-
16cc
=246
8b-
16r
16f
16dd-
16cc
=247
8b-
16r
16f
16dd-
16b-
=248
8cc
16r
16f
16ee-
16dd-
=249
8cc
16r
16f
16ee-
16dd-
=250
8cc
16r
16f
16ee-
16dd-
=251
8cc
16r
16f
16ee-
16cc
=252
8dd-
16r
16f
16dd-
16ff
=253
8r
16r
16f
16dd-
16ff
=254
8r
16r
16f
16dd-
16ff
=255
8r
16r
16g-
16dd-
16gg-
=256
8r
16r
16g-
16dd-
16gg-
=257
8r
16r
16g
16dd-
16gg
=258
8r
16r
16g
16dd-
16gg
=259
8r
16r
16g#
16dd
16gg#
=260
8r
16r
16g#
16dd
16gg#
=261
8r
16r
16g#
16dd
16gg#
=262
8r
16r
16g#
16dd
16gg#
=263
8aa
16r
16a
8aa
=264
8gg#
16r
16a
8gg#
=265
8aa
16r
16a
8aa
=266
8gg#
16r
16a
8gg#
=267
8aa
16r
16cc#
16ee
16gg
=268
8b-
16r
16b-
16cc#
16ee
=269
8g
16r
16b-
16a
16g
=270
8f
16r
16f
16e
16d
=271
8c#
16r
16cc#
16ee
16gg
=272
8b-
16r
16b-
16cc#
16ee
=273
8g
16r
16b-
16a
16g
=274
8f
16r
16f
16e
16d
=275
8ff#
16r
16ff#
16aa
16ccc
=276
8ee-
16r
16ee-
16ff#
16aa
=277
8cc
16r
16ee-
16dd
16cc
=278
8b-
16r
16b-
16a
16g
=279
8f#
16r
16ff#
16aa
16ccc
=280
8ee-
16r
16ee-
16ff#
16aa
=281
8cc
16r
16ee-
16dd
16cc
=282
8b-
16r
16b-
16a
16g
=283
8bb-
16r
16bb-
16aa
16gg
=284
8ff
16r
16ff
16ee
16dd
=285
8ee-
16r
16ee-
16dd
16cc
=286
8b-
16r
16b-
16a
16g
=287
8bb-
16r
16bb-
16aa
16gg
=288
8ff
16r
16ff
16ee
16dd
=289
8bb-
16r
16bb-
16aa
16gg
=290
8ff
16r
16ff
16ee
16dd
=291
8bb-
16r
16bb-
16aa
16gg
=292
8ff
16r
16ff
16ee
16dd
=293
16bb-
16gg
16ff#
16gg
16bb-
16gg
=294
16ff#
16gg
16bb-
16gg
16ff#
16gg
=295
16dd#
16ee
16gg
16ee
16dd#
16ee
=296
16gg
16ee
16dd#
16ee
16gg
16ee
=297
16b#
16cc#
16ee
16cc#
16b#
16cc#
=298
16ee
16cc#
16b#
16cc#
16ee
16cc#
=299
16a
16b-
16cc#
16b-
16a
16b-
=300
16cc#
16b-
16a
16b-
16cc#
16b-
=301
16f#
16g
16b-
16g
16f#
16g
=302
16b-
16g
16f#
16g
16b-
16g
=303
16f#
16g
16b-
16g
16f#
16g
=304
16b-
16g
16f#
16g
16b-
16g
=305
16f#
16g
16b-
16g
16f#
16g
=306
16b-
16cc#
16b-
16g
16f#
16g
=307
16b-
16cc#
16ee
16g
16f#
16g
=308
16b-
16cc#
16ee
16a
16ff
16ee
=309
8dd
16r
16a
16ff
16ee
=310
8dd
16r
16a
16ff
16ee
=311
8dd
16r
16a
16ff
16dd
=312
8ee
16r
16a
16gg
16ff
=313
8ee
16r
16a
16gg
16ff
=314
8ee
16r
16a
16gg
16ff
=315
8ee
16r
16a
16gg
16ee
=316
8ff
16r
16dd
16aa
16ddd
=317
8bb-
16r
16b-
16dd
16bb-
=318
8gg
16r
16g
16b-
16gg
=319
8ee
16r
16e
16a
16ee
=320
8ff
16r
16f
16a
16ff
=321
8dd
16r
16d
16a
16dd
=322
8cc#
16r
16c#
16a
16cc#
=323
8dd
8r
16f
16a
=324
16dd
16ff
16aa
16ff
16ddd
16aa
=325
8bb-
16r
16b-
16dd
16bb-
=326
8gg
16r
16g
16b-
16gg
=327
8ee-
16r
16e-
16g
16ee-
=328
8cc
16r
16c
16f
16cc
=329
8dd
16r
16d
16f
16dd
=330
8ee-
16r
16e-
16g
16ee-
=331
8cc
16r
16c
16a
16cc
=332
8ff
16r
16f
16b-
16ff
=333
8dd
16r
16d
16b-
16dd
=334
8ee-
16r
16e-
16g
16ee-
=335
8cc
16r
16c
16a
16cc
=336
8b-
8r
8r
=337
16r
16BB-
16D-
16F
8B-
=338
16r
16BB-
16D-
16F
8B-
=339
16r
16BB-
16D-
16F
8B-
=340
16GG
16BB-
16E
16G
16B-
16e
=341
16F
16f
16A-
16a-
16c
16cc
=342
16f
16ff
16a-
16aa-
16f
16ff
=343
16c
16cc
16A-
16a-
16c
16cc
=344
16A-
16a-
16F
16f
8r
=345
16r
16F
16A-
16c
8f
=346
16r
16F
16A-
16c
8f
=347
16r
16F
16A-
16c
8f
=348
16D
16F
16B
16d
16f
16b
=349
16c
16cc
16e-
16ee-
16g
16gg
=350
16cc
16ccc
16ee-
16eee-
16cc
16ccc
=351
16g
16gg
16e-
16ee-
16g
16gg
=352
16e-
16ee-
16c
16cc
8r
=353
16r
16C
16E-
16G
8c
=354
16r
16C
16E-
16G
8c
=355
16r
16C
16E-
16G
8c
=356
16AA
16C
16F#
16A
16c
16f#
=357
16G
16g
16B-
16b-
16d
16dd
=358
16g
16gg
16b-
16bb-
16g
16gg
=359
16d
16dd
16B-
16b-
16d
16dd
=360
16B-
16b-
16G
16g
8r
=361
16r
16D
16G
16B-
8d
=362
16r
16D
16G
16B-
8d
=363
16r
16D
16G
16B-
8d
=364
16G#
16d
16G#
16d
16G#
16d
=365
8c#
8b-
8a
=366
8b-
8a
8b-
=367
8a
8b-
8a
=368
8b-
8a
8b-
=369
8a
[4b-
=370
8b-]
8a
8g
=371
8f
8e
8d
=372
8c#
8d
8e
=373
8d
16b-
16bb-
16a
16aa
=374
16b-
16bb-
16a
16aa
16b-
16bb-
=375
16a
16aa
16b-
16bb-
16a
16aa
=376
16b-
16bb-
16a
16aa
16b-
16bb-
=377
8aa
[4bb-
=378
8bb-]
8aa
8gg
=379
8ff
8ee
8dd
=380
8cc#
8dd
8ee
=381
8dd
8bb-
8bb-
=382
8bb-
8aa
8gg
=383
8ff
8ee
8dd
=384
8cc#
8dd
8ee
=385
8dd
8bb-
8bb-
=386
8bb-
8aa
8gg
=387
8ff
8ee
8dd
=388
8cc#
8dd
8ee
=389
8dd
8r
16d
16dd
=390
8f
8r
16f
16ff
=391
8a
8r
16a
16aa
=392
8f
8r
16f
16ff
=393
4.d
=394
8dd
8ee
8cc#
=395
8dd
16r
16d
16dd
16d
=396
8f
16r
16f
16ff
16f
=397
8a
16r
16a
16aa
16a
=398
8f
16r
16f
16ff
16f
=399
4.d
=400
8dd
8ee
8cc#
=401
8dd
8ee
8ff#
=402
8gg
8ddd
8ddd
=403
8ddd
8ccc#
8ddd
=404
8eee
8bb
8ccc#
=405
16dd
16ddd
16ee
16ddd
16ff#
16ddd
=406
16gg
16ddd
16ff
16ddd
16ee
16ddd
=407
16ff
16ddd
16cc#
16ccc#
16dd
16ddd
=408
16ee
16eee
16b
16bb
16cc#
16ccc#
=409
16dd
16ddd
16cc#
16dd
16ddd
16dd
=410
16cc#
16dd
16ddd
16dd
16cc#
16dd
=411
16ddd
16dd
16cc#
16dd
16ddd
16dd
=412
16cc#
16dd
16ddd
16dd
16cc#
16dd
=413
16ee-
16dd
16ee-
16dd
16ee-
16dd
=414
16ee-
16dd
16ee-
16dd
16ee-
16dd
=415
16ee-
16dd
16ee-
16dd
16ee-
16dd
=416
16ee-
16dd
16ee-
16ee-
16aa
16bb-
=417
8ccc
16r
16ee-
16aa
16bb-
=418
8ccc
16r
16ee-
16aa
16bb-
=419
8ccc
16r
16ee-
16aa
16bb-
=420
8ccc
16r
16dd
16ccc
16aa
=421
8bb-
16r
16g
16b-
16dd
=422
8r
16r
16g
16b-
16cc#
=423
8r
16r
16g
16b-
16dd
=424
8r
16r
16g
16b-
16ee
=425
8r
16r
16ff
16bb
16ccc#
=426
8ddd
16r
16ff
16bb-
16ccc#
=427
8ddd
16r
16ff
16bb
16ccc#
=428
8ddd
16r
16ee
16ddd
16bb
=429
8ccc#
16r
16a
16cc#
16ee
=430
8r
16r
16a
16cc#
16dd#
=431
8r
16r
16a
16cc#
16ee
=432
8r
16r
16a
16cc#
16ff#
=433
8r
16r
16a
16cc#
16gg
=434
8r
16r
16a
16cc#
16ff#
=435
8r
16r
16a
16cc#
16gg
=436
8r
16r
16a
16cc#
16ff
=437
8r
16r
16a
16cc#
16ee
=438
8r
16r
16a
16cc#
16dd#
=439
8r
16r
16a
16cc#
16ee
=440
8r
16r
16a
16cc#
16ff#
=441
8r
16r
16a
16cc#
16gg
=442
8r
16r
16a
16cc#
16gg
=443
8r
16r
16a
16cc#
16gg
=444
8r
16r
16a
8aa[
=445
8aa]
16r
16a
[8aa
=446
8aa]
16r
16a
[8aa
=447
8aa]
16r
16a
[8aa
=448
8aa]
16r
16a
[8aa
=449
8aa]
16r
16a
[8aa
=450
8aa]
16r
16a
[8aa
=451
8aa]
16r
16a
[8aa
=452
8aa]
16r
16dd
16aa
16ddd
=453
8bb-
16r
16b-
16dd
16bb-
=454
8gg
16r
16g
16b-
16gg
=455
8ee
16r
16e
16a
16ee
=456
8ff
16r
16f
16a
16ff
=457
8dd
16r
16d
16a
16dd
=458
8cc#
16r
16c#
16a
16cc#
=459
8dd
8r
16f
16a
=460
16dd
16ff
16aa
16ff
16ddd
16aa
=461
8bb-
16r
16b-
16dd
16bb-
=462
8gg
16r
16g
16b-
16gg
=463
8ee
16r
16e
16a
16ee
=464
8ff
16r
16f
16a
16ff
=465
8dd
16r
16d
16a
16dd
=466
8cc#
16r
16c#
16a
16cc#
=467
16dd
32r
32a
4aa
=468
16gg#
16gg
16ff#
16ff
16ee
16ee-
=469
8dd
16r
16d
16a
16dd
=470
8cc#
16r
16c#
16a
16cc#
=471
16dd
32r
32dd
4ddd
=472
16ccc#
16ccc
16bb
16bb-
16aa
16gg#
=473
8aa
16r
16d
16a
16dd
=474
8cc#
16r
16c#
16a
16cc#
=475
16dd
16dd
4fff[
=476
16fff]
16eee
16eee-
16ddd
16ccc#
16ccc
=477
24bb
24bb-
24aa
24gg#
24gg
24ff#
32ff
32ee
32ee-
32dd
=478
8aa
8r
8a
=479
8dd
16r
16a
16ff
16dd
=480
8cc#
16r
16a
16ee
16cc#
=481
8dd
16r
16aa
16fff
16ddd
=482
8ccc#
16r
16aa
16eee
16ccc#
=483
8ddd
16r
16a
16ff
16dd
=484
8cc#
16r
16a
16ee
16cc#
=485
8dd
16r
16aa
16fff
16ddd
=486
8ccc#
16r
16aa
16eee
16ccc#
=487
8ddd
16r
16fff
16aa
16ddd
=488
8ff
16r
16ddd
16ff
16aa
=489
8dd
16r
16aa
16dd
16ff
=490
8a
16r
16ff
16a
16dd
=491
16f
16dd
16a
16f
16d
16A
=492
4.r
=493
8.r
==
*-
